X:1
T:Title
%%score { ( 1 5 6 ) | ( 2 3 4 ) }
L:1/8
M:4/4
K:Ab
V:1 treble nm="Grand Piano"
V:5 treble 
V:6 treble 
V:2 bass 
V:3 bass 
V:4 bass 
V:1
 z8[Q:1/4=100] | [EAc]2 [Ac]2 [EAc]2 [Ac]2 | [EAc]2 [Ac]2 [Ac]2 [EAc]2 | %3
 [FAd]2 [Ad]2 [FAd]2 [Ad]2 | [EAc]2 [Ac]2 [Ac]2 z2 | [EAc]2 [Ac]2 [EAc]2 c2 | %6
 [EAc]2 [Ac]2 [Ac]2 [EAc]2 | [FA=d]2 [Ad]2 [FAd]2 [Ad]2 | [EGBe]2 [AB=d]2 [GB_d]2 z2 | %9
 [EAc]2 [Ac]2 [EAc]2 [Ac]2 | [EAc]2 [Ac]2 [Ac]2 [EAc]2 | [FAd]2 [Ad]2 [FAd]2 [FAd]2 | %12
 [=EGc=e]2 [Gce]2 [Gce]2 B>c | d2 c2 B2 A2 | G2 F2 E2 [Fd]2 | c6 z2 | A6 z2 | c6 z2 | %18
 [DEB] [CEA]3 [A,CE]2 [A,C=E]2 | F4 F4 | [B,DF]6 z2 | d6 z2 | [Ec] [DGB]3 [EGc]2 [DGB]2 | %23
 [CEA]2 [CEF]2 [=DG]2 [A,DA]2 |[M:9/8] [DB]3- [DB] [Ee]2- [Ee]3 |[M:4/4] e6 z2 | %26
 [DGB] [CFA]3- [CFA]2 [C_GA]2 | [DFB]2 [A,F]2 [FB]2 [Fc]2 | [Fd]4 [FA]2 [=EB]2 | %29
 c E3 d2 c2[Q:1/4=98][Q:1/4=97][Q:1/4=95][Q:1/4=94][Q:1/4=92][Q:1/4=91][Q:1/4=89][Q:1/4=88][Q:1/4=86][Q:1/4=84][Q:1/4=83][Q:1/4=81][Q:1/4=80][Q:1/4=78][Q:1/4=77] | %30
 c A3 B4 | A8 |] %32
V:2
 z4 z2 C,>D, | z2 E2 z2 E2 | z[K:treble] C3- C2 z2 | z2 F2 z2 F2 | z2 E2 E2 C,>D, | z2 E2 z2 E2 | %6
 z[K:treble] C3- C2 z2 | z2 F2 z2 F2 | B,6[K:bass] z2 | z2 E2 z2 E2 | z[K:treble] C3- C2 z2 | %11
 z2 F2 A,2 B,2 | z2[K:treble] =E2 E2 B,>C | D2 C2[K:bass] B,2 A,2 | G,2 F,2 E,2 [D,A,]2 | %15
 E,2- [E,C]2 E2[K:treble] D2 | [CE]2 D2 C2 z2 | z2 E4 z2 | A, A,3 A,,2 A,,2 | D,2 D,2 C,2 C,2 | %20
 B,,6 z2 | [G,E]2 B,2 E2 E,2 | E, E,3 E,2 E,2 | A,2 A,2 B,2 B,,2 |[M:9/8] .[E,G,]3 z [G,B,]2 B,3 | %25
[M:4/4][K:treble] [CA]2 E2 D2[K:bass] A,2 | C, F,3- F,2 E,2 | D,2 D,2 [D,A,]2 [C,=A,]2 | %28
 [B,,B,]4 [D,A,]2 [D,A,]2 | [E,A,E] [E,A,C]3[K:treble] F2 E2 | E C3[K:bass] [E,G,D]4 | E,2 z2 z4 |] %32
V:3
 x8 | z2 z F, z2 z F, | .E,2[K:treble] E2 E2 A,>G, | F,4 A,4 | E,6 z2 | z2 z F, z2 z F, | %6
 .E,2[K:treble] E2 E2 A,>G, | F,4 B,4 | z2 F2 E2[K:bass] C,>D, | z2 z F, z2 z F, | %10
 .E,2[K:treble] E2 E2 A,>G, | F,4 z4 | C6[K:treble] z2 | x4[K:bass] x4 | x8 | %15
 [A,E]2 z2 E,4[K:treble] | A,6 z2 | [CE]2 z2 E,2 E,2 | x8 | x8 | x8 | E,6 z2 | x8 | x8 | %24
[M:9/8] x9 |[M:4/4][K:treble] A,6[K:bass] z2 | x8 | x8 | x8 | x4[K:treble] x4 | x4[K:bass] x4 | %31
 A,,2- [A,,F,]2- [A,,-F,] [A,,E,]3 |] %32
V:4
 x8 | E,4 E,4 | x[K:treble] x7 | x8 | x8 | E,4 E,4 | x[K:treble] x7 | x8 | x6[K:bass] x2 | %9
 E,4 E,4 | x[K:treble] x7 | x8 | x2[K:treble] x6 | x4[K:bass] x4 | x8 | x6[K:treble] x2 | x8 | %17
 A,4 z4 | x8 | x8 | x8 | x8 | x8 | x8 |[M:9/8] x9 |[M:4/4][K:treble] x6[K:bass] x2 | x8 | x8 | x8 | %29
 x4[K:treble] x4 | x4[K:bass] x4 | x8 |] %32
V:5
 x8 | x8 | x8 | x8 | x8 | x8 | x8 | x8 | x8 | x8 | x8 | x8 | x8 | x8 | x8 | z2 A2 z2 B2 | %16
 z2 F2 E2 z2 | z2 A2 G2 [DGB]2 | x8 | [A,D]2 [A,D]2 [=A,E]2 [A,E]2 | x8 | z2 G2 B2 [EAc]2 | x8 | %23
 x8 |[M:9/8] z2 [F,A,]- [F,A,] z z D3 |[M:4/4] z2 c2 B2 [EAc]2 | x8 | x8 | x8 | x8 | x8 | %31
 C2 D2- D C3 |] %32
V:6
 x8 | x8 | x8 | x8 | x8 | x8 | x8 | x8 | x8 | x8 | x8 | x8 | x8 | x8 | x8 | z4 G4 | x8 | x8 | x8 | %19
 x8 | x8 | x8 | x8 | x8 |[M:9/8] x9 |[M:4/4] x8 | x8 | x8 | x8 | x8 | x8 | x8 |] %32

